src/assents/img/instagram.svg

<?xml version="1.0" encoding="iso-8859-1"?>
<!-- Generator: Adobe Illustrator 19.0.0, SVG Export Plug-In . SVG Version: 6.00 Build 0)  -->
<svg version="1.1" id="Capa_1" xmlns="http://www.w3.org/2000/svg" xmlns:xlink="http://www.w3.org/1999/xlink" x="0px" y="0px"
	 viewBox="0 0 512 512" style="enable-background:new 0 0 512 512;" xml:space="preserve">
<g>
	<g>
		<path d="M352,0H160C71.648,0,0,71.648,0,160v192c0,88.352,71.648,160,160,160h192c88.352,0,160-71.648,160-160V160
			C512,71.648,440.352,0,352,0z M464,352c0,61.76-50.24,112-112,112H160c-61.76,0-112-50.24-112-112V160C48,98.24,98.24,48,160,48
			h192c61.76,0,112,50.24,112,112V352z"/>
	</g>
</g>
<g>
	<g>
		<path d="M256,128c-70.688,0-128,57.312-128,128s57.312,128,128,128s128-57.312,128-128S326.688,128,256,128z M256,336
			c-44.096,0-80-35.904-80-80c0-44.128,35.904-80,80-80s80,35.872,80,80C336,300.096,300.096,336,256,336z"/>
	</g>
</g>
<g>
	<g>
		<circle cx="393.6" cy="118.4" r="17.056"/>
	</g>
</g>
<g>
</g>
<g>
</g>
<g>
</g>
<g>
</g>
<g>
</g>
<g>
</g>
<g>
</g>
<g>
</g>
<g>
</g>
<g>
</g>
<g>
</g>
<g>
</g>
<g>
</g>
<g>
</g>
<g>
</g>
</svg>

<svg width="512" height="512" viewBox="0 0 512 512" fill="none" xmlns="http://www.w3.org/2000/svg">
<path d="M352 0H160C71.648 0 0 71.648 0 160V352C0 440.352 71.648 512 160 512H352C440.352 512 512 440.352 512 352V160C512 71.648 440.352 0 352 0ZM464 352C464 413.76 413.76 464 352 464H160C98.24 464 48 413.76 48 352V160C48 98.24 98.24 48 160 48H352C413.76 48 464 98.24 464 160V352Z" fill="white"/>
<path d="M256 128C185.312 128 128 185.312 128 256C128 326.688 185.312 384 256 384C326.688 384 384 326.688 384 256C384 185.312 326.688 128 256 128ZM256 336C211.904 336 176 300.096 176 256C176 211.872 211.904 176 256 176C300.096 176 336 211.872 336 256C336 300.096 300.096 336 256 336Z" fill="white"/>
<path d="M393.6 135.456C403.02 135.456 410.656 127.82 410.656 118.4C410.656 108.98 403.02 101.344 393.6 101.344C384.18 101.344 376.544 108.98 376.544 118.4C376.544 127.82 384.18 135.456 393.6 135.456Z" fill="white"/>
</svg>
